X:1
T:Title
%%score 1 2 3 4
L:1/8
Q:1/4=81
M:4/4
K:F
V:1 treble nm="Drawbar Organ"
V:2 bass nm="Drawbar Organ"
V:3 treble nm="Drawbar Organ"
V:4 bass nm="Drawbar Organ"
V:1
 z8 | F4 F2 d2 | c4 A2 G2 | G2 F2 G2 A2 | D4 C4 | C4 C2 A2 | A2 G2 E2 C2 | F4 E3 E | E8 | %9
 F4 F2 F2 | F2 A2 G3 G | G2 B2 A3 A | c4 B4 | d4 c2 A2 | F4 G2 A2 | c2 B2 A2 G2 | F8 |] %17
V:2
 z8 | A,4 B,2 G,2 | C4 C2 C2 | A,4 G,2 F,2 | F,4 E,4 | F,2 A,2 G,2 F,2 | E,4 G,2 E,2 | %7
 A,4 _A,3 =B, | =B,4 A,4 | F,4 F,2 F,2 | F,2 D,2 G,3 G, | G,2 E,2 A,3 A, | A,4 B,2[K:treble] D2 | %13
 F2 E2 F2 C2 | A,4 B,2 C2 | D4 C2 B,2 | B,4 A,4 |] %17
V:3
 z8 | C4 D2 E2 | F4 F2 E2 | E2 D2 D2[K:bass] A,2 | A,2 G,2 A,2 B,2 | A,4[K:treble] C2 =B,2 | %6
 C4 C2 G,2 | C2 D2 =B,3 D | D4 ^C4 | C2 A,2 B,2 C2 | D4 D2 F2 | E4 E3 G | F4 F4 | F2 G2 A2 C2 | %14
 C2 D2 E2 F2 | F4 E2 D2 | C8 |] %17
V:4
 z8 | F,4 F,2 G,2 | A,4 F,2 C,2 | D,4 E,2 F,2 | B,,4 C,4 | F,4 E,2 D,2 | C,4 C,2 E,2 | %7
 D,2 =B,,2 E,3 E, | [A,,E,]8 | A,,2 F,,2 G,,2 A,,2 | B,,4 =B,,2 D,2 | C,4 ^C,3 C, | D,4 D,2 F,2 | %13
 B,4 A,2 F,2 | A,4 G,2 F,2 | C,4 C,2 C,2 | [F,,C,]8 |] %17

